frontend/public/java.svg

<?xml version="1.0" encoding="utf-8"?><!-- Uploaded to: SVG Repo, www.svgrepo.com, Generator: SVG Repo Mixer Tools -->
<svg width="800px" height="800px" viewBox="0 0 32 32" fill="none" xmlns="http://www.w3.org/2000/svg">
<path d="M16.0497 8.44062C22.6378 3.32607 19.2566 0 19.2566 0C19.7598 5.28738 13.813 6.53583 12.2189 10.1692C11.1312 12.6485 12.9638 14.8193 16.0475 17.5554C15.7749 16.9494 15.3544 16.3606 14.9288 15.7645C13.4769 13.7313 11.9645 11.6132 16.0497 8.44062Z" fill="#E76F00"/>
<path d="M17.1015 18.677C17.1015 18.677 19.0835 17.0779 17.5139 15.3008C12.1931 9.27186 23.3333 6.53583 23.3333 6.53583C16.5317 9.8125 17.5471 11.7574 19.2567 14.1202C21.0871 16.6538 17.1015 18.677 17.1015 18.677Z" fill="#E76F00"/>
<path d="M22.937 23.4456C29.0423 20.3258 26.2195 17.3278 24.2492 17.7317C23.7662 17.8305 23.5509 17.9162 23.5509 17.9162C23.5509 17.9162 23.7302 17.64 24.0726 17.5204C27.9705 16.1729 30.9682 21.4949 22.8143 23.6028C22.8143 23.6029 22.9088 23.5198 22.937 23.4456Z" fill="#5382A1"/>
<path d="M10.233 19.4969C6.41312 18.9953 12.3275 17.6139 12.3275 17.6139C12.3275 17.6139 10.0307 17.4616 7.20592 18.8043C3.86577 20.3932 15.4681 21.1158 21.474 19.5625C22.0984 19.1432 22.9614 18.7798 22.9614 18.7798C22.9614 18.7798 20.5037 19.2114 18.0561 19.4145C15.0612 19.6612 11.8459 19.7093 10.233 19.4969Z" fill="#5382A1"/>
<path d="M11.6864 22.4758C9.55624 22.2592 10.951 21.2439 10.951 21.2439C5.43898 23.0429 14.0178 25.083 21.7199 22.8682C20.9012 22.5844 20.3806 22.0653 20.3806 22.0653C16.6163 22.7781 14.441 22.7553 11.6864 22.4758Z" fill="#5382A1"/>
<path d="M12.6145 25.6991C10.486 25.4585 11.7295 24.7474 11.7295 24.7474C6.72594 26.1222 14.7729 28.9625 21.1433 26.2777C20.0999 25.8787 19.3528 25.4181 19.3528 25.4181C16.5111 25.9469 15.1931 25.9884 12.6145 25.6991Z" fill="#5382A1"/>
<path d="M25.9387 27.3388C25.9387 27.3388 26.8589 28.0844 24.9252 28.6612C21.2481 29.7566 9.62093 30.0874 6.39094 28.7049C5.22984 28.2082 7.40723 27.5189 8.09215 27.3742C8.80646 27.2219 9.21466 27.2503 9.21466 27.2503C7.9234 26.3558 0.868489 29.0067 5.63111 29.7659C18.6195 31.8372 29.3077 28.8331 25.9387 27.3388Z" fill="#5382A1"/>
<path d="M28 28.9679C27.7869 31.6947 18.7877 32.2683 12.9274 31.8994C9.10432 31.6583 8.33812 31.0558 8.32691 31.047C11.9859 31.6402 18.1549 31.7482 23.1568 30.8225C27.5903 30.0016 28 28.9679 28 28.9679Z" fill="#5382A1"/>
</svg>

<svg width="32" height="32" viewBox="0 0 32 32" role="img" xmlns="http://www.w3.org/2000/svg">
  <title>Java</title>
  <path fill="currentColor" d="M16.05 8.44C22.64 3.33 19.26 0 19.26 0c.5 5.29-5.45 6.54-7.04 10.17-1.09 2.48.75 4.65 3.83 7.39-.27-.61-.7-1.2-1.12-1.79-1.45-2.03-2.96-4.15 1.12-7.32Zm1.05 10.24s1.98-1.6.41-3.38C12.19 9.27 23.33 6.54 23.33 6.54c-6.8 3.27-5.79 5.22-4.07 7.58 1.83 2.54-2.16 4.56-2.16 4.56Zm5.84 4.77c6.1-3.12 3.28-6.12 1.31-5.72-.48.1-.7.19-.7.19s.18-.28.52-.4c3.9-1.35 6.9 3.97-1.26 6.08 0 0 .1-.08.13-.15ZM10.23 19.5c-3.82-.5 2.1-1.88 2.1-1.88s-2.3-.16-5.12 1.18c-3.34 1.6 8.26 2.32 14.26.77.63-.42 1.49-.78 1.49-.78s-2.46.43-4.9.63c-3 .25-6.21.3-7.83.08Zm1.46 2.98c-2.13-.22-.74-1.24-.74-1.24-5.51 1.8 3.07 3.84 10.77 1.63-.82-.29-1.34-.8-1.34-.8-3.76.71-5.94.69-8.69.41Zm.92 3.22c-2.12-.24-.88-.95-.88-.95-5 1.37 3.04 4.21 9.41 1.53-1.04-.4-1.79-.86-1.79-.86-2.84.53-4.16.57-6.74.28Zm13.33 1.64s.92.74-1.01 1.32c-3.68 1.1-15.31 1.43-18.54.04-1.16-.49 1.02-1.18 1.7-1.32.72-.15 1.13-.12 1.13-.12-1.3-.9-8.35 1.75-3.59 2.51 12.99 2.07 23.68-.93 20.31-2.43ZM28 28.97c-.21 2.72-9.21 3.3-15.07 2.93-3.82-.24-4.59-.84-4.6-.85 3.66.59 9.82.7 14.83-.23C27.59 30 28 28.97 28 28.97Z"/>
</svg>
